build/assets/fonts/6f9066168c1fdf21bb40228737af2d9b.svg

<svg width="100" height="60" viewBox="0 0 100 60" version="1.1" xmlns="http://www.w3.org/2000/svg" xmlns:xlink="http://www.w3.org/1999/xlink"><title>Paymill-light</title><desc>Created with Sketch.</desc><g id="Light-Payment-badges" stroke="none" stroke-width="1" fill="none" fill-rule="evenodd" transform="translate(-290.000000, -889.000000)"><g id="Paymill-light" transform="translate(290.000000, 889.000000)"><rect id="Rectangle" fill="#FFF" x="0" y="0" width="100" height="60" rx="4"/><path d="M31.9180052,31.4218531 L30.6867192,31.4218531 L30.6867192,35.8965734 L28.6703412,35.8965734 L28.6703412,24.0239161 L32.1497113,24.0239161 C34.647664,24.0239161 36.5391076,25.2004196 36.5391076,27.6248601 C36.5390026,30.1027972 34.7904462,31.4218531 31.9180052,31.4218531 L31.9180052,31.4218531 Z M31.9891864,25.6103497 L30.6867192,25.6103497 L30.6867192,29.8354196 L31.935643,29.8354196 C33.7378478,29.8354196 34.5050919,29.1044056 34.5050919,27.6783566 C34.5049869,26.3947552 33.7910761,25.6103497 31.9891864,25.6103497 L31.9891864,25.6103497 Z" id="Shape" fill="#F05000"/><path d="M38.0594226,35.8965734 L36.0435696,35.8965734 L40.575643,24.0239161 L42.52,24.0239161 L47.1416273,35.8965734 L44.9468766,35.8965734 L44.0191076,33.3473077 L38.9876115,33.3473077 L38.0594226,35.8965734 L38.0594226,35.8965734 Z M42.1808924,28.3202098 C41.824147,27.3216084 41.5033071,26.2702448 41.5033071,26.2702448 L41.4672966,26.2702448 C41.4672966,26.2702448 41.1639895,27.3398601 40.7893963,28.3202098 C40.7893963,28.3202098 39.576168,31.7071678 39.5583202,31.7071678 L43.4121785,31.7071678 L42.1808924,28.3202098 L42.1808924,28.3202098 Z" id="Shape" fill="#F05000"/><polygon id="Shape" fill="#F05000" points="50.9980052 31.4042308 50.9980052 35.8965734 48.9818373 35.8965734 48.9818373 31.4042308 45.0208924 24.0239161 47.2688714 24.0239161 50.0701312 29.5323776 50.088294 29.5323776 52.8893438 24.0239161 54.8519685 24.0239161"/><path d="M60.7456168,35.9174476 L58.3367979,29.0362238 C58.0692913,28.2344056 57.8015748,27.3607343 57.8015748,27.3607343 L57.7658793,27.3607343 C57.7658793,27.3607343 57.6943832,28.2875874 57.6056693,29.0899301 L56.7668241,35.9173427 L54.9289239,35.9173427 L56.5527559,24.0447902 L58.4976378,24.0447902 L61.1378478,31.7105245 C61.4769554,32.6548951 61.7983202,33.8138811 61.7983202,33.8138811 L61.8340157,33.8138811 C61.8340157,33.8138811 62.1728084,32.6548951 62.512021,31.7105245 L65.1884514,24.0447902 L67.1331234,24.0447902 L68.7569554,35.9173427 L66.7047769,35.9173427 L65.8306562,29.0541608 C65.7234646,28.2344056 65.6343307,27.3607343 65.6343307,27.3607343 L65.5987402,27.3607343 C65.5987402,27.3607343 65.3487664,28.2344056 65.0810499,29.0362238 L62.7081365,35.9174476 L60.7456168,35.9174476 L60.7456168,35.9174476 Z" id="Shape" fill="#F05000"/><polygon id="Shape" fill="#F05000" points="70.5988451 35.9174476 70.5988451 24.045 72.6149081 24.045 72.6149081 35.9175524 70.5988451 35.9175524"/><polygon id="Shape" fill="#F05000" points="74.784147 35.9174476 74.784147 24.045 76.8 24.045 76.8 34.2775175 81.3320735 34.2775175 81.3320735 35.9175524 74.784147 35.9175524"/><polygon id="Shape" fill="#F05000" points="83.447874 35.9174476 83.447874 24.045 85.464147 24.045 85.464147 34.2775175 89.9958005 34.2775175 89.9958005 35.9175524 83.447874 35.9175524"/><path d="M18.5320735,26.7186713 C18.5320735,26.4620979 18.3236745,26.2541958 18.0668766,26.2541958 L15.6967979,26.2538811 C15.3528609,26.2538811 15.0418898,26.4358741 14.8920735,26.7185664 L10.1099213,36.7533566 C10.0846194,36.8103147 10.0703412,36.8734615 10.0703412,36.9395455 C10.0703412,37.196014 10.2785302,37.4038112 10.5353281,37.4038112 L12.9053018,37.4042308 C13.3124409,37.4042308 13.6519685,37.0566084 13.7847769,36.7781119 C13.9175853,36.4996154 18.4932283,26.9047552 18.4932283,26.9047552 L18.4925984,26.9047552 C18.5175853,26.8474825 18.5320735,26.784965 18.5320735,26.7186713 L18.5320735,26.7186713 Z" id="Shape" fill="#F05000"/><path d="M24.2062992,28.1124126 C24.2062992,28.0472727 24.1930709,27.9852797 24.1687139,27.9292657 L24.1687139,27.9287413 L21.95979,23.1635664 L21.9585302,23.1625175 C21.8038845,22.815 21.4873491,22.5373427 21.080315,22.5373427 L18.7101312,22.5375524 C18.4533333,22.5375524 18.2452493,22.7454545 18.2452493,23.0019231 C18.2452493,23.0683217 18.2596325,23.1312587 18.2849344,23.1883217 L18.2844094,23.1887413 L20.5129659,27.888986 C20.5129659,27.888986 20.5701837,28.0326923 20.5701837,28.1125175 C20.5701837,28.1924476 20.5479265,28.2665035 20.5126509,28.331958 L20.5129659,28.3358392 L18.2849344,33.0366084 C18.2596325,33.093986 18.2452493,33.1565035 18.2452493,33.223007 C18.2452493,33.4794755 18.4532283,33.6872727 18.7101312,33.6872727 L21.080315,33.6876923 C21.4873491,33.6876923 21.7864567,33.4101399 21.9585302,33.0622028 L21.95979,33.0611538 L24.1687139,28.2960839 L24.1687139,28.2955594 C24.1930709,28.2395455 24.2062992,28.1775524 24.2062992,28.1124126 L24.2062992,28.1124126 Z" id="Shape" fill="#F05000"/></g></g></svg>

<svg width="100" height="60" xmlns="http://www.w3.org/2000/svg"><g fill="none" fill-rule="evenodd"><rect fill="#FFF" width="100" height="60" rx="4"/><path d="M31.918 31.422h-1.231v4.475H28.67V24.024h3.48c2.498 0 4.39 1.176 4.39 3.6-.001 2.479-1.75 3.798-4.622 3.798zm.071-5.812h-1.302v4.225h1.249c1.802 0 2.57-.73 2.57-2.157-.001-1.283-.715-2.068-2.517-2.068zm6.071 10.287h-2.016l4.532-11.873h1.944l4.622 11.873h-2.195l-.928-2.55h-5.031l-.929 2.55zm4.12-7.577a53.555 53.555 0 0 1-.677-2.05h-.036s-.303 1.07-.678 2.05c0 0-1.213 3.387-1.23 3.387h3.853l-1.231-3.387zm8.818 3.084v4.493h-2.016v-4.493l-3.961-7.38h2.248l2.801 5.508h.018l2.801-5.508h1.963zm9.748 4.513l-2.41-6.88a84.436 84.436 0 0 1-.534-1.676h-.036s-.072.927-.16 1.729l-.84 6.827H54.93l1.624-11.872h1.945l2.64 7.666c.339.944.66 2.103.66 2.103h.036s.339-1.16.678-2.103l2.676-7.666h1.945l1.624 11.872h-2.052l-.874-6.863c-.108-.82-.197-1.693-.197-1.693H65.6s-.25.873-.518 1.675l-2.373 6.881h-1.962zm9.853 0V24.045h2.016v11.873h-2.016zm4.185 0V24.045H76.8v10.233h4.532v1.64h-6.548zm8.664 0V24.045h2.016v10.233h4.532v1.64h-6.548zm-64.916-9.198a.465.465 0 0 0-.465-.465h-2.37a.906.906 0 0 0-.805.465L10.11 36.753a.465.465 0 0 0 .425.65l2.37.001c.407 0 .747-.347.88-.626l4.708-9.873a.463.463 0 0 0 .04-.186z" fill="#F05000"/><path d="M24.206 28.112a.458.458 0 0 0-.037-.183l-2.21-4.765v-.001c-.155-.348-.472-.626-.879-.626h-2.37a.465.465 0 0 0-.425.651l2.228 4.701s.057.144.057.224a.46.46 0 0 1-.057.219v.004l-2.228 4.7a.464.464 0 0 0 .425.65l2.37.002c.407 0 .706-.278.879-.626l2.21-4.766a.458.458 0 0 0 .037-.184z" fill="#F05000"/></g></svg>
